img/svg/icon-font/bars-graphic.svg

<svg width="22" height="22" viewBox="0 0 22 22" fill="none" xmlns="http://www.w3.org/2000/svg">
<g clip-path="url(#clip0)">
<path d="M20.2814 17.2721V2.14827C20.2814 1.91144 20.0886 1.71858 19.8517 1.71858H17.9613C17.7243 1.71858 17.5316 1.91144 17.5316 2.14827V20.2797H21.1406C21.6153 20.2797 22 20.6644 22 21.1389C22 21.6136 21.6153 21.9983 21.1406 21.9983H0.861053C0.386383 21.9983 0.00167847 21.6136 0.00167847 21.1389V14.9949C0.00167847 13.8104 0.965454 12.8466 2.14995 12.8466H4.04041C5.22507 12.8466 6.18867 13.8104 6.18867 14.9949V17.2721C6.18867 17.7468 5.80397 18.1315 5.32947 18.1315C4.8548 18.1315 4.47009 17.7468 4.47009 17.2721V14.9949C4.47009 14.7581 4.2774 14.5652 4.04041 14.5652H2.14995C1.91312 14.5652 1.72026 14.7581 1.72026 14.9949V20.2797H7.90742V9.02277C7.90742 7.8381 8.87103 6.8745 10.0557 6.8745H11.9462C13.1306 6.8745 14.0944 7.8381 14.0944 9.02277V17.2721C14.0944 17.7468 13.7097 18.1315 13.235 18.1315C12.7605 18.1315 12.3757 17.7468 12.3757 17.2721V9.02277C12.3757 8.78577 12.183 8.59308 11.9462 8.59308H10.0557C9.8187 8.59308 9.62601 8.78577 9.62601 9.02277V20.2797H15.813V2.14827C15.813 0.963776 16.7768 0 17.9613 0H19.8517C21.0362 0 22 0.963776 22 2.14827V17.2721C22 17.7468 21.6153 18.1315 21.1406 18.1315C20.6661 18.1315 20.2814 17.7468 20.2814 17.2721ZM3.42323 7.69073H2.14357C1.93242 7.69073 1.71858 7.55797 1.71858 7.30418C1.71858 6.82951 1.33388 6.44481 0.859375 6.44481C0.384705 6.44481 0 6.82951 0 7.30418C0 8.45813 0.899994 9.36736 2.06317 9.40747V9.88197C2.06317 10.3566 2.44788 10.7413 2.92255 10.7413C3.39705 10.7413 3.78175 10.3566 3.78175 9.88197V9.38431C4.9639 9.21915 5.84509 8.24698 5.84509 7.03546V6.96027C5.84509 5.60994 4.75862 4.51138 3.42323 4.51138H2.63586C2.24428 4.51138 1.93745 4.21245 1.93745 3.8306V3.76833C1.93745 3.38362 2.23773 3.09358 2.63586 3.09358H3.38043C3.5993 3.09358 3.82556 3.23994 3.82556 3.48517C3.82556 3.95984 4.21043 4.34454 4.68494 4.34454C5.15961 4.34454 5.54431 3.95984 5.54431 3.48517C5.54431 2.45526 4.7838 1.59605 3.78175 1.41193V0.859375C3.78175 0.384705 3.39705 0 2.92255 0C2.44788 0 2.06317 0.384705 2.06317 0.859375V1.44147C1.63785 1.54184 1.24828 1.75383 0.932388 2.063C0.472153 2.51334 0.218872 3.11893 0.218872 3.76833V3.8306C0.218872 4.47966 0.471649 5.08575 0.93071 5.53743C1.38474 5.98407 1.99033 6.22997 2.63586 6.22997H3.42323C3.80441 6.22997 4.12634 6.56448 4.12634 6.96027V7.03546C4.12634 7.40909 3.82405 7.69073 3.42323 7.69073Z" fill="#4C51CB"/>
</g>
<defs>
<clipPath id="clip0">
<rect width="22" height="22" fill="white"/>
</clipPath>
</defs>
</svg>

<svg width="22" height="22" fill="none" xmlns="http://www.w3.org/2000/svg"><g clip-path="url(#clip0)"><path d="M20.281 17.272V2.148a.43.43 0 00-.43-.43h-1.89a.43.43 0 00-.43.43V20.28h3.61a.86.86 0 110 1.718H.86a.86.86 0 01-.86-.86v-6.143a2.15 2.15 0 012.149-2.148h1.89a2.15 2.15 0 012.149 2.148v2.277a.86.86 0 11-1.719 0v-2.277a.43.43 0 00-.43-.43H2.15a.43.43 0 00-.43.43v5.285h6.187V9.023a2.15 2.15 0 012.149-2.148h1.89a2.15 2.15 0 012.148 2.148v8.25a.86.86 0 11-1.718 0v-8.25a.43.43 0 00-.43-.43h-1.89a.43.43 0 00-.43.43V20.28h6.187V2.148A2.15 2.15 0 0117.961 0h1.89A2.15 2.15 0 0122 2.148v15.124a.86.86 0 11-1.719 0zM3.423 7.691h-1.28c-.21 0-.424-.133-.424-.387a.86.86 0 10-1.719 0c0 1.154.9 2.063 2.063 2.103v.475a.86.86 0 101.719 0v-.498c1.182-.165 2.063-1.137 2.063-2.349V6.96c0-1.35-1.086-2.449-2.422-2.449h-.787a.682.682 0 01-.699-.68v-.063c0-.384.3-.674.699-.674h.744c.22 0 .446.146.446.391a.86.86 0 001.718 0c0-1.03-.76-1.889-1.762-2.073V.859a.86.86 0 10-1.719 0v.582c-.425.1-.815.313-1.13.622a2.366 2.366 0 00-.714 1.705v.063c0 .649.253 1.255.712 1.706.454.447 1.06.693 1.705.693h.787c.381 0 .703.334.703.73v.075c0 .374-.302.656-.703.656z" fill="#4C51CB"/></g><defs><clipPath id="clip0"><path fill="#fff" d="M0 0h22v22H0z"/></clipPath></defs></svg>
